X: 1
T: the Seven-Step Polka   [D]
O: trad Shetland
M: C
L: 1/8
K: D
A2 \
| "D"d2d2 d2d2 | "A7"cdec "D"d2A2 | "D"f2f2 f2f2 | "A7"efge "D"f2d2 |
|: "G"b2b2 "D"a3f | "G"g2g2 "D"f3d | "G"B2e2 "Em"e3d |1 "A7"cABc "D"defa :|2 "A7"cABc "D"d2 |]
